X:1
T:Title
%%score 1 2
L:1/8
Q:1/4=90
M:3/4
K:C
V:1 treble nm="Viola, Staff"
V:2 treble nm="Flute, Staff-1"
V:1
 g3 G F>E | A3 A Bd | dc BA G>F | G2 z C EG | A3 c AG/F/ | G4 AG/F/ | GE D2 C2 | A,3 C EG | %8
w: By~Charles~Hubert~Hastings~Parry~(1848\-1918) * * *||||||||
 A3 c BA/G/ | A3 A BE | G^F E2 D2 | G3 D DE | F3 A G>D | F3 D FG | A3 c _BG | A3 F Ac | d3 c B>A | %17
w: |||||||||
 G3 G cA | GA E2 D2 | C4 z2 | FE A2 B>d | dc BA G>F | G2 z C EG | A3 c AG/F/ | G4 AG/F/ | %25
w: ||||||||
 GE D2 C2 | A,3 C EG | A3 c BA/G/ | A3 A BE | G^F E2 D2 | G3 D DE | F3 A G>D | F3 D FG | A3 c _BG | %34
w: |||||||||
 A3 F Ac | d3 c B>A | G3 G cA | GA E2 D2 | C6- | C2 z2 z2 |] %40
w: ||||||
V:2
 z6 | z6 | z6 | z6 | z6 | z6 | z6 | z6 | z6 | z6 | z6 | z6 | z6 | z6 | z6 | z6 | z6 | z6 | z6 | %19
 z2 g3 G | z6 | z6 | z6 | z6 | z6 | z6 | z6 | z6 | z6 | z6 | z6 | z6 | z6 | z6 | z6 | z6 | z6 | %37
 z6 | C6- | C2 z2 z2 |] %40

